svgs/light/list-ol.svg

<svg xmlns="http://www.w3.org/2000/svg" viewBox="0 0 512 512"><!-- Font Awesome Pro 6.0.0-alpha2 by @fontawesome - https://fontawesome.com License - https://fontawesome.com/license (Commercial License) --><path d="M208 112H496C504.801 112 512 104.799 512 96C512 87.199 504.801 80 496 80H208C199.201 80 192 87.199 192 96C192 104.799 199.201 112 208 112ZM32 224H128C136.844 224 144 216.844 144 208C144 199.158 136.844 192.002 128 192.002H96V48.008C96 42.273 92.937 36.992 87.969 34.133S76.906 31.289 71.937 34.18L36.375 54.914C28.75 59.365 26.156 69.162 30.625 76.803C35.062 84.428 44.875 86.943 52.5 82.568L64 75.85V192.002H32C23.156 192.002 16 199.158 16 208C16 216.844 23.156 224 32 224ZM496 400H208C199.201 400 192 407.199 192 416C192 424.799 199.201 432 208 432H496C504.801 432 512 424.799 512 416C512 407.199 504.801 400 496 400ZM144 448H58.435L119.873 393.984C148.531 369.281 151.969 325.75 127.594 296.938C115.342 282.5 98.154 273.719 79.154 272.219C59.842 270.594 41.652 276.703 27.246 289.125L13.465 301C6.777 306.766 6.027 316.875 11.777 323.562C17.558 330.281 27.715 331 34.34 325.25L48.123 313.375C55.998 306.594 65.935 303.203 76.623 304.125C87.06 304.937 96.498 309.734 103.154 317.625C116.467 333.344 114.654 356.234 98.873 369.844L5.433 451.984C0.433 456.375 -1.317 463.422 1.027 469.641C3.371 475.875 9.34 480 15.996 480H144C152.844 480 160 472.844 160 464S152.844 448 144 448ZM496 240H208C199.201 240 192 247.199 192 256C192 264.799 199.201 272 208 272H496C504.801 272 512 264.799 512 256C512 247.199 504.801 240 496 240Z"/></svg>

<svg xmlns="http://www.w3.org/2000/svg" viewBox="0 0 512 512"><!--! Font Awesome Pro 6.4.0 by @fontawesome - https://fontawesome.com License - https://fontawesome.com/license (Commercial License) Copyright 2023 Fonticons, Inc. --><path d="M32 48c0 8.8 7.2 16 16 16H64V192H32c-8.8 0-16 7.2-16 16s7.2 16 16 16h96c8.8 0 16-7.2 16-16s-7.2-16-16-16H96V48c0-8.8-7.2-16-16-16H48c-8.8 0-16 7.2-16 16zM192 96c0 8.8 7.2 16 16 16H496c8.8 0 16-7.2 16-16s-7.2-16-16-16H208c-8.8 0-16 7.2-16 16zm0 160c0 8.8 7.2 16 16 16H496c8.8 0 16-7.2 16-16s-7.2-16-16-16H208c-8.8 0-16 7.2-16 16zm0 160c0 8.8 7.2 16 16 16H496c8.8 0 16-7.2 16-16s-7.2-16-16-16H208c-8.8 0-16 7.2-16 16zM58.7 323.9c11.1-11.1 29.2-10.5 39.6 1.3c9.2 10.5 8.9 26.2-.6 36.3L12.3 453.1c-4.3 4.7-5.5 11.5-3 17.3s8.3 9.6 14.7 9.6H128c8.8 0 16-7.2 16-16s-7.2-16-16-16H60.8l60.3-64.6c20.7-22.2 21.2-56.4 1.3-79.3c-22.5-25.7-62.1-27.1-86.3-2.9L20.7 316.7c-6.2 6.2-6.2 16.4 0 22.6s16.4 6.2 22.6 0l15.4-15.4z"/></svg>
